X:1
T:Title
%%score { ( 1 3 ) | ( 2 4 ) }
L:1/8
Q:1/4=120
M:4/4
K:D
V:1 treble nm="Church Organ"
V:3 treble 
V:2 bass 
V:4 bass 
V:1
 D4 | z2 G2 z4 | [DFA]4 [DA]4 | [DB]2 [Ec]2 [Fd]2 [EB]2 | [Ec]4 [FA]4 | %5
w: DEVICE=GENERAL.MDV|||||
 [Fd]2 [EAc]2 [DFB]2 [A,CA]2 | [B,E^G]4 [A,EA]4 | [DFB]2 [CFA]2 [B,EA]2 [B,E^G]2 | [CEA]4 [A,DF]4 | %9
w: ||||
 [DGB]2 [=CEA]2 [B,DG]2 [A,DF]2 | [G,B,E]4 [CA]4 | [G,DG]2 [A,DF]2[K:bass] [B,DE]2 .[A,CE]2 | %12
w: |||
 [F,D]4 z4 |] %13
w: |
V:2
 [D,F,]4 | D4 z4 | D,4 [D,F,]4 | [D,F,]2 [C,A,]2 [B,,A,]2 [E,^G,]2 | [A,,A,]4 [D,A,]4 | %5
 [B,,B,]2 C,2 D,2 F,2 | E,4 C,4 | D,2 F,2 E,2 E,2 | A,,4 D,4 | G,,2 A,,2 B,,2 D,2 | E,4 [A,,E,]4 | %11
 B,,2 D,2 G,,2 z G, | D,4 z4 |] %13
V:3
 x4 | F2 z E [CFA]2 [DGB]2 | x8 | x8 | x8 | x8 | x8 | x8 | x8 | x8 | x8 | x4[K:bass] x4 | x8 |] %13
V:4
 x4 | [D,A,]2 [B,,B,]2 A,,2 G,,2 | x8 | x8 | x8 | x8 | x8 | x8 | x8 | x8 | x8 | z4 z2 A,,2 | x8 |] %13

